dist/img/c__mail.svg

<svg width="40" height="30" viewBox="0 0 40 30" fill="none" xmlns="http://www.w3.org/2000/svg">
<path d="M34.6085 0H4.82055C2.1615 0 0 2.1615 0 4.82055V25.1794C0 27.8385 2.1615 30 4.82055 30H34.6003C37.2594 30 39.4209 27.8385 39.4209 25.1794V4.82871C39.429 2.16966 37.2675 0 34.6085 0ZM37.2268 25.1794C37.2268 26.6232 36.0522 27.7977 34.6085 27.7977H4.82055C3.37684 27.7977 2.20228 26.6232 2.20228 25.1794V4.82871C2.20228 3.38499 3.37684 2.21044 4.82055 2.21044H34.6003C36.044 2.21044 37.2186 3.38499 37.2186 4.82871V25.1794H37.2268Z" fill="white"/>
<path d="M24.8612 14.7472L34.5023 6.10121C34.951 5.69338 34.9917 5.00006 34.5839 4.54329C34.1761 4.09468 33.4828 4.0539 33.026 4.46173L19.7307 16.3948L17.1369 14.0784C17.1288 14.0702 17.1206 14.0621 17.1206 14.0539C17.0635 13.9968 17.0064 13.9479 16.9412 13.8989L6.38651 4.45357C5.92974 4.04574 5.23643 4.08652 4.8286 4.54329C4.42077 5.00006 4.46156 5.69338 4.91833 6.10121L14.6736 14.8206L4.95911 23.9152C4.51865 24.3312 4.49418 25.0245 4.91017 25.4732C5.1304 25.7015 5.42403 25.8239 5.71767 25.8239C5.98684 25.8239 6.25601 25.726 6.46808 25.5303L16.3294 16.3051L19.0048 18.695C19.2169 18.8826 19.4779 18.9723 19.7389 18.9723C19.9999 18.9723 20.2691 18.8745 20.473 18.6869L23.2218 16.2236L33.026 25.5384C33.2381 25.7423 33.5154 25.8402 33.7846 25.8402C34.0782 25.8402 34.3637 25.726 34.5839 25.4976C34.9999 25.0572 34.9836 24.3557 34.5431 23.9397L24.8612 14.7472Z" fill="white"/>
</svg>

<svg width="40" height="30" viewBox="0 0 40 30" fill="none" xmlns="http://www.w3.org/2000/svg"><path d="M34.608 0H4.822A4.825 4.825 0 0 0 0 4.82v20.36C0 27.838 2.162 30 4.82 30H34.6c2.66 0 4.82-2.162 4.82-4.82V4.828A4.82 4.82 0 0 0 34.609 0zm2.619 25.18a2.621 2.621 0 0 1-2.618 2.618H4.82a2.621 2.621 0 0 1-2.619-2.619V4.83A2.621 2.621 0 0 1 4.821 2.21H34.6a2.621 2.621 0 0 1 2.618 2.619v20.35h.008z" fill="#fff"/><path d="M24.861 14.747l9.641-8.646c.449-.408.49-1.1.082-1.558a1.107 1.107 0 0 0-1.558-.081L19.731 16.395l-2.594-2.317c-.008-.008-.016-.016-.016-.024a1.642 1.642 0 0 0-.18-.155L6.387 4.454a1.1 1.1 0 0 0-1.558.09 1.1 1.1 0 0 0 .09 1.557l9.755 8.72-9.715 9.094a1.106 1.106 0 0 0 1.51 1.615l9.86-9.225 2.676 2.39a1.1 1.1 0 0 0 1.468-.008l2.749-2.463 9.804 9.314c.212.204.49.302.759.302a1.1 1.1 0 0 0 .758-1.9l-9.682-9.193z" fill="#fff"/></svg>
